packages/netlify-cms-ui-default/src/Icon/images/quote.svg

<svg height="20" viewBox="0 0 22 20" width="22" xmlns="http://www.w3.org/2000/svg"><path d="m214.995361 20.9536133h2.986084l1.990723-3.9814453v-5.972168h-5.972168v5.972168h2.986084zm7.962891 0h2.986084l1.990723-3.9814453v-5.972168h-5.972168v5.972168h2.986084z" fill="#7a8291" transform="translate(-210 -6)"/></svg>

<svg xmlns="http://www.w3.org/2000/svg" width="22" height="20" viewBox="0 0 22 20"><path fill="#7A8291" d="M214.995361,20.9536133 L217.981445,20.9536133 L219.972168,16.972168 L219.972168,11 L214,11 L214,16.972168 L216.986084,16.972168 L214.995361,20.9536133 Z M222.958252,20.9536133 L225.944336,20.9536133 L227.935059,16.972168 L227.935059,11 L221.962891,11 L221.962891,16.972168 L224.948975,16.972168 L222.958252,20.9536133 Z" transform="translate(-210 -6)"/></svg>
